app/clientComponent/section6_contact/images/down.svg

<svg width="339" height="65" viewBox="0 0 339 65" fill="none" xmlns="http://www.w3.org/2000/svg">
<path d="M24.3404 1.25C24.4804 1.25 24.5504 1.39 24.5504 1.67C24.5504 1.95 24.4804 2.09 24.3404 2.09C23.0337 2.09 22.0537 2.23 21.4004 2.51C20.7937 2.79 20.3737 3.28 20.1404 3.98C19.9537 4.63333 19.8604 5.66 19.8604 7.06V45.84C19.8604 50.88 18.6237 54.8233 16.1504 57.67C13.7237 60.5633 10.2937 62.01 5.86039 62.01C4.18039 62.01 2.82706 61.66 1.80039 60.96C0.727057 60.3067 0.19039 59.3733 0.19039 58.16C0.19039 57.32 0.47039 56.5733 1.03039 55.92C1.59039 55.3133 2.38372 55.01 3.41039 55.01C4.43706 55.01 5.23039 55.29 5.79039 55.85C6.35039 56.4567 6.86372 57.2733 7.33039 58.3C7.65706 59.0467 7.98372 59.6067 8.31039 59.98C8.63706 60.3533 9.03372 60.54 9.50039 60.54C10.7137 60.54 11.6004 59.6767 12.1604 57.95C12.7671 56.27 13.0704 53.4933 13.0704 49.62V6.92C13.0704 5.52 12.9071 4.49333 12.5804 3.84C12.3004 3.18666 11.7171 2.74333 10.8304 2.51C9.99039 2.23 8.66039 2.09 6.84039 2.09C6.74706 2.09 6.70039 1.95 6.70039 1.67C6.70039 1.39 6.74706 1.25 6.84039 1.25L11.0404 1.32C13.2804 1.41333 15.0537 1.46 16.3604 1.46C17.6204 1.46 19.2304 1.41333 21.1904 1.32L24.3404 1.25ZM61.8609 40.59C62.0009 40.59 62.1176 40.7067 62.2109 40.94C62.3043 41.1733 62.2809 41.3367 62.1409 41.43L52.9709 45.84L52.6909 45.91C52.2243 45.91 51.8043 45.3967 51.4309 44.37C51.0576 43.2967 50.8476 41.8733 50.8009 40.1C47.5343 43.88 44.0809 45.77 40.4409 45.77C37.9209 45.77 35.9609 45 34.5609 43.46C33.1609 41.8733 32.4609 39.7267 32.4609 37.02V26.59C32.4609 23.4167 31.7376 21.83 30.2909 21.83C29.8243 21.83 29.1709 22.0167 28.3309 22.39H28.2609C28.0743 22.39 27.9343 22.2733 27.8409 22.04C27.7476 21.8067 27.7709 21.6433 27.9109 21.55L36.8009 17.42L37.0809 17.35C37.2676 17.35 37.4776 17.4433 37.7109 17.63C37.9443 17.8167 38.0609 17.98 38.0609 18.12V34.01C38.0609 36.6233 38.5276 38.5833 39.4609 39.89C40.4409 41.15 41.9109 41.78 43.8709 41.78C45.0376 41.78 46.2276 41.5 47.4409 40.94C48.7009 40.38 49.8209 39.61 50.8009 38.63V26.59C50.8009 24.9567 50.6143 23.7667 50.2409 23.02C49.9143 22.2267 49.3776 21.83 48.6309 21.83C48.2109 21.83 47.5576 22.0167 46.6709 22.39H46.6009C46.4143 22.39 46.2743 22.2733 46.1809 22.04C46.0876 21.76 46.1343 21.5967 46.3209 21.55L55.1409 17.42C55.2343 17.3733 55.3509 17.35 55.4909 17.35C55.6776 17.35 55.8876 17.4433 56.1209 17.63C56.3543 17.8167 56.4709 17.98 56.4709 18.12V37.09C56.4709 38.7233 56.6343 39.8667 56.9609 40.52C57.2876 41.1733 57.8243 41.5 58.5709 41.5C59.1309 41.5 60.1809 41.22 61.7209 40.66L61.8609 40.59ZM70.1193 21.62C70.1193 23.0667 70.6093 24.28 71.5893 25.26C72.616 26.24 74.086 27.2667 75.9993 28.34C77.6793 29.2733 78.9626 30.0433 79.8493 30.65C80.7826 31.2567 81.576 32.0733 82.2293 33.1C82.9293 34.1267 83.2793 35.3633 83.2793 36.81C83.2793 38.3967 82.8826 39.8667 82.0893 41.22C81.296 42.5733 80.106 43.67 78.5193 44.51C76.9793 45.35 75.136 45.77 72.9893 45.77C70.4226 45.77 68.066 45.1167 65.9193 43.81C65.6393 43.53 65.4993 43.25 65.4993 42.97L65.3593 36.53C65.3593 36.39 65.476 36.32 65.7093 36.32C65.9893 36.2733 66.1526 36.2967 66.1993 36.39C66.9926 38.7233 68.1826 40.6367 69.7693 42.13C71.4026 43.6233 73.1293 44.37 74.9493 44.37C76.116 44.37 77.026 44.0667 77.6793 43.46C78.3326 42.8533 78.6593 41.9433 78.6593 40.73C78.6593 38.9567 78.146 37.5567 77.1193 36.53C76.0926 35.4567 74.5993 34.4067 72.6393 33.38C71.0526 32.54 69.816 31.84 68.9293 31.28C68.0426 30.6733 67.2726 29.88 66.6193 28.9C66.0126 27.8733 65.7093 26.6133 65.7093 25.12C65.7093 22.46 66.666 20.4767 68.5793 19.17C70.5393 17.8633 72.896 17.21 75.6493 17.21C77.4693 17.21 79.336 17.56 81.2493 18.26C81.6693 18.4467 81.8793 18.7033 81.8793 19.03C81.8793 20.1033 81.856 20.9433 81.8093 21.55L81.7393 24.91C81.7393 25.05 81.5993 25.12 81.3193 25.12C81.0393 25.12 80.8993 25.05 80.8993 24.91C80.8993 23.9767 80.526 23.02 79.7793 22.04C79.0326 21.0133 78.076 20.1733 76.9093 19.52C75.7426 18.8667 74.5526 18.54 73.3393 18.54C71.1926 18.54 70.1193 19.5667 70.1193 21.62ZM108.263 40.52C108.403 40.52 108.52 40.6133 108.613 40.8C108.753 40.9867 108.753 41.1267 108.613 41.22C106.887 42.8533 105.253 44.0433 103.713 44.79C102.173 45.49 100.54 45.84 98.8133 45.84C96.8066 45.84 95.1033 45.3733 93.7033 44.44C92.3499 43.46 91.6733 41.85 91.6733 39.61V23.79C91.6733 22.25 91.4166 21.2233 90.9033 20.71C90.4366 20.1967 89.5033 19.94 88.1033 19.94C88.0566 19.94 87.9866 19.8933 87.8933 19.8C87.8466 19.66 87.8233 19.52 87.8233 19.38C87.8233 19.24 87.8466 19.1233 87.8933 19.03C87.9866 18.89 88.0566 18.82 88.1033 18.82C92.4899 18.6333 95.2433 16.7433 96.3633 13.15C96.4566 12.9633 96.6433 12.87 96.9233 12.87C97.2499 12.87 97.4133 12.9633 97.4133 13.15V18.68C99.6066 18.6333 102.71 18.4 106.723 17.98C106.817 17.98 106.91 18.1667 107.003 18.54C107.143 18.8667 107.213 19.24 107.213 19.66C107.213 20.08 107.12 20.5 106.933 20.92C106.793 21.34 106.63 21.5267 106.443 21.48C103.83 20.8733 100.82 20.5 97.4133 20.36V37.3C97.4133 39.12 97.8566 40.4733 98.7433 41.36C99.6766 42.2 100.96 42.62 102.593 42.62C104.553 42.62 106.397 41.9433 108.123 40.59L108.263 40.52ZM137.334 8.67C137.334 10.3967 137.754 11.9367 138.594 13.29C139.48 14.5967 140.554 15.74 141.814 16.72C143.12 17.7 144.87 18.8667 147.064 20.22C149.444 21.7133 151.31 22.9967 152.664 24.07C154.064 25.1433 155.23 26.4733 156.164 28.06C157.144 29.6 157.634 31.42 157.634 33.52C157.634 35.9 157.004 38.0233 155.744 39.89C154.53 41.7567 152.78 43.2267 150.494 44.3C148.254 45.3267 145.687 45.84 142.794 45.84C140.834 45.84 138.804 45.5833 136.704 45.07C134.65 44.5567 133.087 43.9267 132.014 43.18C131.594 42.9 131.36 42.4567 131.314 41.85L130.894 31.21V31.14C130.894 30.9533 131.01 30.86 131.244 30.86C131.477 30.8133 131.617 30.8833 131.664 31.07C133.204 34.9433 134.954 38.1167 136.914 40.59C138.92 43.0633 141.464 44.3 144.544 44.3C146.55 44.3 148.23 43.7633 149.584 42.69C150.937 41.57 151.614 39.7267 151.614 37.16C151.614 35.1067 151.147 33.31 150.214 31.77C149.327 30.23 148.207 28.9467 146.854 27.92C145.547 26.8933 143.75 25.6333 141.464 24.14C139.224 22.6933 137.474 21.48 136.214 20.5C134.954 19.4733 133.88 18.2367 132.994 16.79C132.107 15.2967 131.664 13.57 131.664 11.61C131.664 9.18333 132.34 7.13 133.694 5.45C135.047 3.77 136.797 2.53333 138.944 1.74C141.137 0.899998 143.424 0.479997 145.804 0.479997C147.39 0.479997 148.977 0.643331 150.564 0.969999C152.15 1.25 153.48 1.62333 154.554 2.09C155.254 2.37 155.604 2.81333 155.604 3.42L155.814 12.94C155.814 13.08 155.674 13.1733 155.394 13.22C155.16 13.2667 155.02 13.22 154.974 13.08C154.04 10.2333 152.78 7.66666 151.194 5.38C149.654 3.04666 147.32 1.88 144.194 1.88C142.094 1.88 140.414 2.48666 139.154 3.7C137.94 4.91333 137.334 6.57 137.334 8.67ZM190.592 41.22C190.779 41.22 190.895 41.3367 190.942 41.57C190.989 41.7567 190.919 41.8967 190.732 41.99L183.522 45.42C183.335 45.5133 183.125 45.56 182.892 45.56C182.192 45.56 181.515 45.1633 180.862 44.37C180.255 43.53 179.859 42.4333 179.672 41.08L176.452 43.32C175.332 44.1133 174.305 44.6733 173.372 45C172.485 45.3267 171.482 45.49 170.362 45.49C168.449 45.49 166.979 45.0467 165.952 44.16C164.972 43.2267 164.482 42.0133 164.482 40.52C164.482 39.26 164.809 38.2333 165.462 37.44C166.162 36.6467 167.025 36.0167 168.052 35.55C169.125 35.0367 170.689 34.4067 172.742 33.66L179.532 31.14V26.94C179.532 24.0467 179.229 21.9467 178.622 20.64C178.062 19.2867 177.152 18.61 175.892 18.61C174.352 18.61 173.232 19.1933 172.532 20.36C171.879 21.48 171.482 22.74 171.342 24.14C171.062 26.52 169.872 27.71 167.772 27.71C166.745 27.71 165.975 27.4767 165.462 27.01C164.995 26.5433 164.762 25.96 164.762 25.26C164.762 23.9533 165.532 22.6933 167.072 21.48C168.659 20.22 170.549 19.2167 172.742 18.47C174.982 17.6767 176.942 17.28 178.622 17.28C180.629 17.28 182.215 17.91 183.382 19.17C184.595 20.43 185.202 22.32 185.202 24.84V37.44C185.202 38.8867 185.435 39.9833 185.902 40.73C186.369 41.4767 187.045 41.85 187.932 41.85C188.632 41.85 189.472 41.64 190.452 41.22H190.592ZM179.532 39.96V39.26V32.33L175.332 34.08C174.119 34.5467 173.115 35.1067 172.322 35.76C171.575 36.3667 171.202 37.2533 171.202 38.42C171.202 39.54 171.552 40.45 172.252 41.15C172.999 41.8033 173.885 42.13 174.912 42.13C175.752 42.13 176.639 41.85 177.572 41.29L179.532 39.96ZM220.908 17.98C221.001 17.98 221.048 18.12 221.048 18.4C221.048 18.68 221.001 18.82 220.908 18.82C219.508 18.82 218.295 19.38 217.268 20.5C216.288 21.62 215.378 23.3233 214.538 25.61L206.488 46.96C204.808 51.44 203.198 54.9633 201.658 57.53C200.118 60.0967 198.555 61.9167 196.968 62.99C195.381 64.11 193.631 64.67 191.718 64.67C190.411 64.67 189.408 64.39 188.708 63.83C187.961 63.3167 187.588 62.5233 187.588 61.45C187.588 60.5167 187.891 59.7933 188.498 59.28C189.058 58.8133 189.758 58.58 190.598 58.58C191.158 58.58 191.625 58.65 191.998 58.79C192.418 58.9767 192.838 59.21 193.258 59.49C193.725 59.77 194.121 59.98 194.448 60.12C194.821 60.26 195.265 60.33 195.778 60.33C196.851 60.33 197.831 59.8867 198.718 59C199.651 58.16 200.608 56.7367 201.588 54.73C202.615 52.7233 203.828 49.8767 205.228 46.19L194.168 23.79C193.141 21.7833 192.325 20.4533 191.718 19.8C191.158 19.1467 190.458 18.82 189.618 18.82C189.478 18.82 189.408 18.68 189.408 18.4C189.408 18.12 189.478 17.98 189.618 17.98C190.831 17.98 191.765 18.0033 192.418 18.05L195.148 18.12L199.908 18.05C200.608 18.0033 201.565 17.98 202.778 17.98C202.918 17.98 202.988 18.12 202.988 18.4C202.988 18.68 202.918 18.82 202.778 18.82C201.518 18.82 200.585 18.9367 199.978 19.17C199.418 19.3567 199.138 19.73 199.138 20.29C199.138 20.71 199.255 21.13 199.488 21.55L208.028 39.19L212.718 25.61C213.138 24.3967 213.348 23.37 213.348 22.53C213.348 20.0567 211.785 18.82 208.658 18.82C208.565 18.82 208.518 18.68 208.518 18.4C208.518 18.12 208.565 17.98 208.658 17.98C209.918 17.98 210.875 18.0033 211.528 18.05L215.728 18.12L218.458 18.05C218.971 18.0033 219.788 17.98 220.908 17.98ZM287.762 44.16C287.902 44.16 287.972 44.3 287.972 44.58C287.972 44.86 287.902 45 287.762 45C286.176 45 284.892 44.9767 283.912 44.93L278.802 44.86L272.852 44.93C272.012 44.9767 270.892 45 269.492 45C269.352 45 269.282 44.86 269.282 44.58C269.282 44.3 269.352 44.16 269.492 44.16C271.266 44.16 272.549 44.0433 273.342 43.81C274.136 43.5767 274.672 43.1333 274.952 42.48C275.232 41.8267 275.372 40.7767 275.372 39.33V23.16H251.362V39.33C251.362 40.73 251.502 41.78 251.782 42.48C252.062 43.1333 252.599 43.5767 253.392 43.81C254.232 44.0433 255.539 44.16 257.312 44.16C257.406 44.16 257.452 44.3 257.452 44.58C257.452 44.86 257.406 45 257.312 45C255.726 45 254.489 44.9767 253.602 44.93L247.792 44.86L242.682 44.93C241.796 44.9767 240.559 45 238.972 45C238.879 45 238.832 44.86 238.832 44.58C238.832 44.3 238.879 44.16 238.972 44.16C240.652 44.16 241.889 44.0433 242.682 43.81C243.476 43.5767 244.012 43.1333 244.292 42.48C244.572 41.78 244.712 40.73 244.712 39.33V6.92C244.712 5.52 244.572 4.49333 244.292 3.84C244.012 3.18666 243.476 2.74333 242.682 2.51C241.889 2.23 240.676 2.09 239.042 2.09C238.949 2.09 238.902 1.95 238.902 1.67C238.902 1.39 238.949 1.25 239.042 1.25L242.752 1.32C244.899 1.41333 246.579 1.46 247.792 1.46C249.426 1.46 251.362 1.41333 253.602 1.32L257.312 1.25C257.406 1.25 257.452 1.39 257.452 1.67C257.452 1.95 257.406 2.09 257.312 2.09C255.586 2.09 254.302 2.23 253.462 2.51C252.669 2.79 252.109 3.28 251.782 3.98C251.502 4.63333 251.362 5.66 251.362 7.06V21.34H275.372V7.06C275.372 5.66 275.232 4.63333 274.952 3.98C274.672 3.28 274.112 2.79 273.272 2.51C272.479 2.23 271.219 2.09 269.492 2.09C269.352 2.09 269.282 1.95 269.282 1.67C269.282 1.39 269.352 1.25 269.492 1.25L272.852 1.32C275.092 1.41333 277.076 1.46 278.802 1.46C280.062 1.46 281.766 1.41333 283.912 1.32L287.762 1.25C287.902 1.25 287.972 1.39 287.972 1.67C287.972 1.95 287.902 2.09 287.762 2.09C286.082 2.09 284.846 2.23 284.052 2.51C283.306 2.74333 282.792 3.18666 282.512 3.84C282.232 4.49333 282.092 5.52 282.092 6.92V39.33C282.092 40.73 282.232 41.78 282.512 42.48C282.792 43.1333 283.306 43.5767 284.052 43.81C284.846 44.0433 286.082 44.16 287.762 44.16ZM299.573 9.93C298.359 9.93 297.403 9.60333 296.703 8.95C296.049 8.29666 295.723 7.36333 295.723 6.15C295.723 4.98333 296.049 4.09666 296.703 3.49C297.403 2.83666 298.359 2.51 299.573 2.51C300.739 2.51 301.649 2.83666 302.303 3.49C302.956 4.09666 303.283 4.98333 303.283 6.15C303.283 7.36333 302.956 8.29666 302.303 8.95C301.696 9.60333 300.786 9.93 299.573 9.93ZM293.133 45C292.993 45 292.923 44.86 292.923 44.58C292.923 44.3 292.993 44.16 293.133 44.16C294.719 44.16 295.769 43.8333 296.283 43.18C296.796 42.5267 297.053 41.2433 297.053 39.33V26.59C297.053 25.0033 296.889 23.86 296.563 23.16C296.236 22.4133 295.676 22.04 294.883 22.04C294.183 22.04 293.273 22.32 292.153 22.88H292.083C291.896 22.88 291.756 22.7633 291.663 22.53C291.569 22.2967 291.593 22.1333 291.733 22.04L301.813 17.35L302.023 17.28C302.209 17.28 302.396 17.3967 302.583 17.63C302.816 17.8167 302.933 17.98 302.933 18.12V19.59C302.839 21.55 302.793 23.86 302.793 26.52V39.33C302.793 41.2433 303.049 42.5267 303.563 43.18C304.123 43.8333 305.196 44.16 306.783 44.16C306.923 44.16 306.993 44.3 306.993 44.58C306.993 44.86 306.923 45 306.783 45C305.616 45 304.683 44.9767 303.983 44.93L299.923 44.86L295.863 44.93C295.209 44.9767 294.299 45 293.133 45ZM329.743 1.81C329.649 1.57666 330.069 1.39 331.003 1.25C331.983 1.06333 333.009 0.969999 334.083 0.969999C335.109 0.969999 336.113 1.06333 337.093 1.25C338.073 1.39 338.516 1.57666 338.423 1.81C337.489 5.59 336.766 9.72 336.253 14.2C335.786 18.6333 335.343 24.0233 334.923 30.37L334.853 31.77C334.853 31.9567 334.549 32.05 333.943 32.05C333.289 32.05 332.963 31.9567 332.963 31.77C332.636 25.2367 332.239 19.6133 331.773 14.9C331.353 10.14 330.676 5.77667 329.743 1.81ZM333.663 45.77C332.496 45.77 331.563 45.42 330.863 44.72C330.163 44.02 329.813 43.0867 329.813 41.92C329.813 40.8 330.163 39.9133 330.863 39.26C331.563 38.6067 332.496 38.28 333.663 38.28C334.876 38.28 335.809 38.6067 336.463 39.26C337.116 39.9133 337.443 40.8 337.443 41.92C337.443 43.1333 337.116 44.09 336.463 44.79C335.809 45.4433 334.876 45.77 333.663 45.77Z" fill="#4971FF"/>
</svg>

<svg xmlns="http://www.w3.org/2000/svg" width="339" height="65" fill="none" xmlns:v="https://vecta.io/nano"><path d="M24.34 1.25c.14 0 .21.14.21.42s-.07.42-.21.42c-1.307 0-2.287.14-2.94.42-.607.28-1.027.77-1.26 1.47-.187.653-.28 1.68-.28 3.08v38.78c0 5.04-1.237 8.983-3.71 11.83-2.427 2.893-5.857 4.34-10.29 4.34-1.68 0-3.033-.35-4.06-1.05-1.073-.653-1.61-1.587-1.61-2.8 0-.84.28-1.587.84-2.24.56-.607 1.353-.91 2.38-.91s1.82.28 2.38.84c.56.607 1.073 1.423 1.54 2.45.327.747.653 1.307.98 1.68s.723.56 1.19.56c1.213 0 2.1-.863 2.66-2.59.607-1.68.91-4.457.91-8.33V6.92c0-1.4-.163-2.427-.49-3.08-.28-.653-.863-1.097-1.75-1.33-.84-.28-2.17-.42-3.99-.42-.093 0-.14-.14-.14-.42s.047-.42.14-.42l4.2.07c2.24.093 4.013.14 5.32.14 1.26 0 2.87-.047 4.83-.14l3.15-.07zm37.521 39.34c.14 0 .257.117.35.35s.07.397-.07.49l-9.17 4.41-.28.07c-.467 0-.887-.513-1.26-1.54-.373-1.073-.583-2.497-.63-4.27-3.267 3.78-6.72 5.67-10.36 5.67-2.52 0-4.48-.77-5.88-2.31-1.4-1.587-2.1-3.733-2.1-6.44V26.59c0-3.173-.723-4.76-2.17-4.76-.467 0-1.12.187-1.96.56h-.07c-.187 0-.327-.117-.42-.35s-.07-.397.07-.49l8.89-4.13.28-.07c.187 0 .397.093.63.28s.35.35.35.49v15.89c0 2.613.467 4.573 1.4 5.88.98 1.26 2.45 1.89 4.41 1.89 1.167 0 2.357-.28 3.57-.84 1.26-.56 2.38-1.33 3.36-2.31V26.59c0-1.633-.187-2.823-.56-3.57-.327-.793-.863-1.19-1.61-1.19-.42 0-1.073.187-1.96.56h-.07c-.187 0-.327-.117-.42-.35-.093-.28-.047-.443.14-.49l8.82-4.13a.78.78 0 0 1 .35-.07c.187 0 .397.093.63.28s.35.35.35.49v18.97c0 1.633.163 2.777.49 3.43s.863.98 1.61.98c.56 0 1.61-.28 3.15-.84l.14-.07zm8.258-18.97c0 1.447.49 2.66 1.47 3.64 1.027.98 2.497 2.007 4.41 3.08 1.68.933 2.963 1.703 3.85 2.31.933.607 1.727 1.423 2.38 2.45.7 1.027 1.05 2.263 1.05 3.71 0 1.587-.397 3.057-1.19 4.41s-1.983 2.45-3.57 3.29c-1.54.84-3.383 1.26-5.53 1.26-2.567 0-4.923-.653-7.07-1.96-.28-.28-.42-.56-.42-.84l-.14-6.44c0-.14.117-.21.35-.21.28-.047.443-.023.49.07.793 2.333 1.983 4.247 3.57 5.74 1.633 1.493 3.36 2.24 5.18 2.24 1.167 0 2.077-.303 2.73-.91s.98-1.517.98-2.73c0-1.773-.513-3.173-1.54-4.2-1.027-1.073-2.52-2.123-4.48-3.15-1.587-.84-2.823-1.54-3.71-2.1-.887-.607-1.657-1.4-2.31-2.38-.607-1.027-.91-2.287-.91-3.78 0-2.66.957-4.643 2.87-5.95 1.96-1.307 4.317-1.96 7.07-1.96 1.82 0 3.687.35 5.6 1.05.42.187.63.443.63.77 0 1.073-.023 1.913-.07 2.52l-.07 3.36c0 .14-.14.21-.42.21s-.42-.07-.42-.21c0-.933-.373-1.89-1.12-2.87-.747-1.027-1.703-1.867-2.87-2.52s-2.357-.98-3.57-.98c-2.147 0-3.22 1.027-3.22 3.08zm38.144 18.9c.14 0 .257.093.35.28.14.187.14.327 0 .42-1.726 1.633-3.36 2.823-4.9 3.57-1.54.7-3.173 1.05-4.9 1.05-2.007 0-3.71-.467-5.11-1.4-1.353-.98-2.03-2.59-2.03-4.83V23.79c0-1.54-.257-2.567-.77-3.08-.467-.513-1.4-.77-2.8-.77-.047 0-.117-.047-.21-.14a1.32 1.32 0 0 1-.07-.42c0-.14.023-.257.07-.35.093-.14.163-.21.21-.21 4.387-.187 7.14-2.077 8.26-5.67.093-.187.28-.28.56-.28.327 0 .49.093.49.28v5.53c2.193-.047 5.297-.28 9.31-.7.094 0 .187.187.28.56a2.82 2.82 0 0 1 .21 1.12c0 .42-.093.84-.28 1.26-.14.42-.303.607-.49.56-2.613-.607-5.623-.98-9.03-1.12V37.3c0 1.82.443 3.173 1.33 4.06.933.84 2.217 1.26 3.85 1.26 1.96 0 3.804-.677 5.53-2.03l.14-.07zm29.071-31.85c0 1.727.42 3.267 1.26 4.62a14.96 14.96 0 0 0 3.22 3.43c1.306.98 3.056 2.147 5.25 3.5 2.38 1.493 4.246 2.777 5.6 3.85 1.4 1.073 2.566 2.403 3.5 3.99.98 1.54 1.47 3.36 1.47 5.46 0 2.38-.63 4.503-1.89 6.37-1.214 1.867-2.964 3.337-5.25 4.41-2.24 1.027-4.807 1.54-7.7 1.54-1.96 0-3.99-.257-6.09-.77-2.054-.513-3.617-1.143-4.69-1.89-.42-.28-.654-.723-.7-1.33l-.42-10.64v-.07c0-.187.116-.28.35-.28.233-.047.373.023.42.21 1.54 3.873 3.29 7.047 5.25 9.52 2.006 2.473 4.55 3.71 7.63 3.71 2.006 0 3.686-.537 5.04-1.61 1.353-1.12 2.03-2.963 2.03-5.53 0-2.053-.467-3.85-1.4-5.39-.887-1.54-2.007-2.823-3.36-3.85-1.307-1.027-3.104-2.287-5.39-3.78-2.24-1.447-3.99-2.66-5.25-3.64-1.26-1.027-2.334-2.263-3.22-3.71-.887-1.493-1.33-3.22-1.33-5.18 0-2.427.676-4.48 2.03-6.16s3.103-2.917 5.25-3.71c2.193-.84 4.48-1.26 6.86-1.26 1.586 0 3.173.163 4.76.49 1.586.28 2.916.653 3.99 1.12.7.28 1.05.723 1.05 1.33l.21 9.52c0 .14-.14.233-.42.28-.234.047-.374 0-.42-.14-.934-2.847-2.194-5.413-3.78-7.7-1.54-2.333-3.874-3.5-7-3.5-2.1 0-3.78.607-5.04 1.82-1.214 1.213-1.82 2.87-1.82 4.97zm53.258 32.55c.187 0 .303.117.35.35.047.187-.023.327-.21.42l-7.21 3.43a1.39 1.39 0 0 1-.63.14c-.7 0-1.377-.397-2.03-1.19-.607-.84-1.003-1.937-1.19-3.29l-3.22 2.24c-1.12.793-2.147 1.353-3.08 1.68-.887.327-1.89.49-3.01.49-1.913 0-3.383-.443-4.41-1.33-.98-.933-1.47-2.147-1.47-3.64 0-1.26.327-2.287.98-3.08.7-.793 1.563-1.423 2.59-1.89 1.073-.513 2.637-1.143 4.69-1.89l6.79-2.52v-4.2c0-2.893-.303-4.993-.91-6.3-.56-1.353-1.47-2.03-2.73-2.03-1.54 0-2.66.583-3.36 1.75-.653 1.12-1.05 2.38-1.19 3.78-.28 2.38-1.47 3.57-3.57 3.57-1.027 0-1.797-.233-2.31-.7-.467-.467-.7-1.05-.7-1.75 0-1.307.77-2.567 2.31-3.78 1.587-1.26 3.477-2.263 5.67-3.01 2.24-.793 4.2-1.19 5.88-1.19 2.007 0 3.593.63 4.76 1.89 1.213 1.26 1.82 3.15 1.82 5.67v12.6c0 1.447.233 2.543.7 3.29s1.143 1.12 2.03 1.12c.7 0 1.54-.21 2.52-.63h.14zm-11.06-1.26v-.7-6.93l-4.2 1.75c-1.213.467-2.217 1.027-3.01 1.68-.747.607-1.12 1.493-1.12 2.66 0 1.12.35 2.03 1.05 2.73.747.653 1.633.98 2.66.98.84 0 1.727-.28 2.66-.84l1.96-1.33zm41.376-21.98c.093 0 .14.14.14.42s-.047.42-.14.42c-1.4 0-2.613.56-3.64 1.68-.98 1.12-1.89 2.823-2.73 5.11l-8.05 21.35c-1.68 4.48-3.29 8.003-4.83 10.57s-3.103 4.387-4.69 5.46c-1.587 1.12-3.337 1.68-5.25 1.68-1.307 0-2.31-.28-3.01-.84-.747-.513-1.12-1.307-1.12-2.38 0-.933.303-1.657.91-2.17.56-.467 1.26-.7 2.1-.7.56 0 1.027.07 1.4.21a8.5 8.5 0 0 1 1.26.7c.467.28.863.49 1.19.63.373.14.817.21 1.33.21 1.073 0 2.053-.443 2.94-1.33.933-.84 1.89-2.263 2.87-4.27 1.027-2.007 2.24-4.853 3.64-8.54l-11.06-22.4c-1.027-2.007-1.843-3.337-2.45-3.99a2.65 2.65 0 0 0-2.1-.98c-.14 0-.21-.14-.21-.42s.07-.42.21-.42c1.213 0 2.147.023 2.8.07l2.73.07 4.76-.07c.7-.047 1.657-.07 2.87-.07.14 0 .21.14.21.42s-.07.42-.21.42c-1.26 0-2.193.117-2.8.35-.56.187-.84.56-.84 1.12 0 .42.117.84.35 1.26l8.54 17.64 4.69-13.58c.42-1.213.63-2.24.63-3.08 0-2.473-1.563-3.71-4.69-3.71-.093 0-.14-.14-.14-.42s.047-.42.14-.42c1.26 0 2.217.023 2.87.07l4.2.07 2.73-.07c.513-.047 1.33-.07 2.45-.07zm66.854 26.18c.14 0 .21.14.21.42s-.07.42-.21.42c-1.586 0-2.87-.023-3.85-.07l-5.11-.07-5.95.07c-.84.047-1.96.07-3.36.07-.14 0-.21-.14-.21-.42s.07-.42.21-.42c1.774 0 3.057-.117 3.85-.35s1.33-.677 1.61-1.33.42-1.703.42-3.15V23.16h-24.01v16.17c0 1.4.14 2.45.42 3.15.28.653.817 1.097 1.61 1.33.84.233 2.147.35 3.92.35.094 0 .14.14.14.42s-.046.42-.14.42c-1.586 0-2.823-.023-3.71-.07l-5.81-.07-5.11.07c-.886.047-2.123.07-3.71.07-.093 0-.14-.14-.14-.42s.047-.42.14-.42c1.68 0 2.917-.117 3.71-.35s1.33-.677 1.61-1.33c.28-.7.42-1.75.42-3.15V6.92c0-1.4-.14-2.427-.42-3.08s-.816-1.097-1.61-1.33c-.793-.28-2.006-.42-3.64-.42-.093 0-.14-.14-.14-.42s.047-.42.14-.42l3.71.07 5.04.14c1.634 0 3.57-.047 5.81-.14l3.71-.07c.094 0 .14.14.14.42s-.046.42-.14.42c-1.726 0-3.01.14-3.85.42-.793.28-1.353.77-1.68 1.47-.28.653-.42 1.68-.42 3.08v14.28h24.01V7.06c0-1.4-.14-2.427-.42-3.08-.28-.7-.84-1.19-1.68-1.47-.793-.28-2.053-.42-3.78-.42-.14 0-.21-.14-.21-.42s.07-.42.21-.42l3.36.07c2.24.093 4.224.14 5.95.14 1.26 0 2.964-.047 5.11-.14l3.85-.07c.14 0 .21.14.21.42s-.07.42-.21.42c-1.68 0-2.916.14-3.71.42-.746.233-1.26.677-1.54 1.33s-.42 1.68-.42 3.08v32.41c0 1.4.14 2.45.42 3.15.28.653.794 1.097 1.54 1.33.794.233 2.03.35 3.71.35zm11.811-34.23c-1.214 0-2.17-.327-2.87-.98-.654-.653-.98-1.587-.98-2.8 0-1.167.326-2.053.98-2.66.7-.653 1.656-.98 2.87-.98 1.166 0 2.076.327 2.73.98.653.607.98 1.493.98 2.66 0 1.213-.327 2.147-.98 2.8-.607.653-1.517.98-2.73.98zM293.133 45c-.14 0-.21-.14-.21-.42s.07-.42.21-.42c1.586 0 2.636-.327 3.15-.98s.77-1.937.77-3.85V26.59c0-1.587-.164-2.73-.49-3.43-.327-.747-.887-1.12-1.68-1.12-.7 0-1.61.28-2.73.84h-.07c-.187 0-.327-.117-.42-.35s-.07-.397.07-.49l10.08-4.69.21-.07c.186 0 .373.117.56.35.233.187.35.35.35.49v1.47c-.094 1.96-.14 4.27-.14 6.93v12.81c0 1.913.256 3.197.77 3.85.56.653 1.633.98 3.22.98.14 0 .21.14.21.42s-.07.42-.21.42c-1.167 0-2.1-.023-2.8-.07l-4.06-.07-4.06.07c-.654.047-1.564.07-2.73.07zm36.61-43.19c-.094-.233.326-.42 1.26-.56a16.43 16.43 0 0 1 3.08-.28c1.026 0 2.03.093 3.01.28.98.14 1.423.327 1.33.56-.934 3.78-1.657 7.91-2.17 12.39-.467 4.433-.91 9.823-1.33 16.17l-.07 1.4c0 .187-.304.28-.91.28-.654 0-.98-.093-.98-.28-.327-6.533-.724-12.157-1.19-16.87-.42-4.76-1.097-9.123-2.03-13.09zm3.92 43.96c-1.167 0-2.1-.35-2.8-1.05s-1.05-1.633-1.05-2.8c0-1.12.35-2.007 1.05-2.66s1.633-.98 2.8-.98c1.213 0 2.146.327 2.8.98s.98 1.54.98 2.66c0 1.213-.327 2.17-.98 2.87-.654.653-1.587.98-2.8.98z" fill="#4971ff"/></svg>
